X: 1
T: the Scotch Morris  (Gm)
O: Playford 1726
B: Playford 1726
B: Barnes v.1 p.115
R: reel
M: C|
L: 1/8
K: Gm
|: "Gm"D2G2- G2^FG | "Gm"B4 "Cm"c4 | "D7"A2d2 (AB)(AG) |1,3 "D7"^F2A2- A4 :|2,4 "D7"^F2D2- D4 :|
|: "Bb"d2(g/f/e) d2B2 | "F"c2(f/e/d) c2A2 | "Dm"A2d2 "Gm"B2AB | "Cm"c2A2- A4 |
|  "Bb"d3=e fefd | "C"=efge "D7"^f4 | "Gm"g4 G2A2 | "D7"^F2D2- D4 :|
